src/images/menu-open.svg

<svg width="24" height="24" fill="none" xmlns="http://www.w3.org/2000/svg"><path d="M24 13H0v-2h24v2ZM24 2H0V0h24v2ZM24 24H0v-2h24v2Z" fill="#9093A6"/></svg>

<svg width="24" height="24" viewBox="0 0 24 24" fill="none" xmlns="http://www.w3.org/2000/svg">
<g id="ic-menu-navigation">
<g id="Outline">
<path id="Vector" d="M24 13H0V11H24V13Z" fill="#9093A6"/>
</g>
<g id="Outline_2">
<path id="Vector_2" d="M24 2H0V0H24V2Z" fill="#9093A6"/>
</g>
<g id="Outline_3">
<path id="Vector_3" d="M24 24H0V22H24V24Z" fill="#9093A6"/>
</g>
</g>
</svg>
